projects/more-shaders/santagirl/assets/images/icons/collection.svg

<?xml version="1.0" encoding="utf-8"?><!-- Uploaded to: SVG Repo, www.svgrepo.com, Generator: SVG Repo Mixer Tools -->
<svg width="800px" height="800px" viewBox="0 0 24 24" fill="none" xmlns="http://www.w3.org/2000/svg">
<path d="M17 8C18.8856 8 19.8284 8 20.4142 8.58579C21 9.17157 21 10.1144 21 12L21 16C21 17.8856 21 18.8284 20.4142 19.4142C19.8284 20 18.8856 20 17 20L16 20L8 20L7 20C5.11438 20 4.17157 20 3.58579 19.4142C3 18.8284 3 17.8856 3 16L3 12C3 10.1144 3 9.17157 3.58579 8.58579C4.17157 8 5.11438 8 7 8L8 8L16 8L17 8Z" stroke="#323232" stroke-width="2" stroke-linejoin="round"/>
<path d="M6 8V5.71429C6 4.76751 6.76751 4 7.71429 4V4H16.2857V4C17.2325 4 18 4.76751 18 5.71429V8" stroke="#323232" stroke-width="2" stroke-linecap="round" stroke-linejoin="round"/>
</svg>

<svg fill="none" viewBox="0 0 24 24" xmlns="http://www.w3.org/2000/svg"><path stroke="#323232" stroke-linejoin="round" stroke-width="2" d="M17 8c1.886 0 2.828 0 3.414.586S21 10.114 21 12v4c0 1.886 0 2.828-.586 3.414S18.886 20 17 20H7c-1.886 0-2.828 0-3.414-.586S3 17.886 3 16v-4c0-1.886 0-2.828.586-3.414S5.114 8 7 8z"/><path stroke="#323232" stroke-linecap="round" stroke-linejoin="round" stroke-width="2" d="M6 8V5.714C6 4.768 6.768 4 7.714 4v0h8.572v0C17.233 4 18 4.768 18 5.714V8"/></svg>
